X: 160629
T: Pathway to the Well
M: 6/8
L: 1/8
S: Luke O'Malley vol 1
Z: B.Black
R: jig
K: D
F | DFF AFF | BFF AFE | DFF dFF | EDE GFE |
DFF AFF | BFF ABc | dcd ege | fdd d2 :|
B | Add fdd | add fdd | A2 g gfg | ede gfe |
|1 Add fdd | add ege | fed cAG | Add d2 :|
|2 def gfg | abg fge | fed cAG | Add d2 ||
